X:21
%%etbk:tnset id:8,pos:1,rep:3x,ant:
%%etbk:wsite http://www.thesession.org/tunes/display/11093
%%etbk:video src:ytube,cde:4j_YnxkcRcI,desc:
%%etbk:skill ?
%%etbk:pldat 2013-11-19T16:30,2013-10-20T15:21,2013-10-04T17:44,2013-08-26T18:39,2013-05-15T16:49,2013-05-12T19:14
T: Feabhra
Z: Piano Box Version by Martin Fleischmann
H: Created 2013-02-19 /  Last Modified 2013-02-19
M: 4/4
L: 1/8
R: reel
K: Ddor
!1!A|(3ABc !4!d!5!e de!3!c!1!A|!2!G!1!E!5!c!2!E !1!D!2!E!1!C!5!c|!2!A!1!G!3!c!5!e dced|!3!c!4!d!2!A!1!G G3G|
!1!(3ABc de decA|GEcE DEC!5!c|!4!A!3!G!2!E!1!D !2!C!1!D!2!EG|!5!A!2!E!4!G!2!E !1!D4|
!1!A!3!d!2!d!3!d !4!e!3!d!2!c!1!A|!5!d!4!c!3!A!2!G !1!E!2!D!1!C2|!2!A!4!d!3!d!3!d edc!5!f|fede !3!d2dc|
Addd edcA|dcAG ED!1!C2|!5!A!4!G!2!E!1!D !2!C!1!D!2!E!4!G|AEGE !1!D!3!A!5!c!4!B|
!3!A!1!DDD !2!EGEG|!5!A!1!DDD !2!E!1!D!1!C2|!5!ADDD EGEG|AEGE DAcB|
ADDD EGEG|ADDD EDC2|AGED CDEG|AEGE D4||
